symbols/web/bookmark/materialsymbolsoutlined/bookmark_wght200_20px.svg

<svg xmlns="http://www.w3.org/2000/svg" height="20" width="20"><path d="M5.917 14.812 10 13.083l4.083 1.729V4.771q0-.209-.156-.365t-.365-.156H6.438q-.209 0-.365.156t-.156.365ZM5 16.25V4.771q0-.625.406-1.031.406-.407 1.032-.407h7.124q.626 0 1.032.407.406.406.406 1.031V16.25l-5-2.167Zm9.083-12H5.917h8.166Z"/></svg>

<svg xmlns="http://www.w3.org/2000/svg" height="20" width="20"><path d="M5.917 14.812 10 13.083 14.083 14.812V4.771Q14.083 4.562 13.927 4.406Q13.771 4.25 13.562 4.25H6.438Q6.229 4.25 6.073 4.406Q5.917 4.562 5.917 4.771ZM5 16.25V4.771Q5 4.146 5.406 3.74Q5.812 3.333 6.438 3.333H13.562Q14.188 3.333 14.594 3.74Q15 4.146 15 4.771V16.25L10 14.083ZM14.083 4.25H10H5.917Q5.917 4.25 6.073 4.25Q6.229 4.25 6.438 4.25H13.562Q13.771 4.25 13.927 4.25Q14.083 4.25 14.083 4.25Z"/></svg>
